source/img/icons/icon-facebook.svg

<svg width="15" height="29" viewBox="0 0 15 29" fill="none" xmlns="http://www.w3.org/2000/svg">
<path d="M14.0001 0.749756H10.5001C8.95299 0.749756 7.46925 1.45999 6.37529 2.72423C5.28133 3.98846 4.66675 5.70313 4.66675 7.49103V11.5358H1.16675V16.9288H4.66675V27.7148H9.33342V16.9288H12.8334L14.0001 11.5358H9.33342V7.49103C9.33342 7.13345 9.45633 6.79051 9.67512 6.53767C9.89392 6.28482 10.1907 6.14277 10.5001 6.14277H14.0001V0.749756Z" stroke="#666666" stroke-width="1.1" stroke-linecap="round" stroke-linejoin="round"/>
</svg>

<svg width="15" height="29" fill="none" xmlns="http://www.w3.org/2000/svg"><path d="M14 .75h-3.5c-1.547 0-3.03.71-4.125 1.974-1.094 1.264-1.708 2.98-1.708 4.767v4.045h-3.5v5.393h3.5v10.786h4.666V16.929h3.5L14 11.536H9.333V7.49c0-.358.123-.7.342-.953.219-.253.516-.395.825-.395H14V.75Z" stroke="#666" stroke-width="1.1" stroke-linecap="round" stroke-linejoin="round"/></svg>
